X: 2902
T: Lord Kilmory's Delight
P: Ferguson's Rant
C:Aird Vol. 3
R:Reel (8x32)
B:RSCDS 29-2
Z:Anselm Lingnau <anselm@strathspey.org>
M:C
L:1/8
K:G
|:dc|"G"B2AG DGBG|"D"FAdA "G"DGAG|B2AG DGBG|"D7"B2A2A2 dc|
     "G"BGDG "F#o"cAFA|"G"dBgB "C"ec"D"Af|"Em"gfed "D7"cBAd|"G"B2"C"G2 "G"G2:|
|:ga|"G"bdgd Bdgd|bdBg BdgB|"Am"cedc "G"BGdc|"C"c2 "A/C#"BA "D"A2 "D7"dc|
     "G"BGDG "F#o"cAFA|"G"dBgB "C"ec"D"Af|"Em"gfed "D7"BdAd|"G"B2"C"G2 "G"G2:|
%%center Book29/2902-Lord_Kilmorys_Delight-AL.abc

%%sep 2 1 500
%%sep 1 1 500

